X:210
T: BIN ICH GLEICH A GEBIRGISCHES MADEL
N: B0697
O: Europa, Mitteleuropa, Deutschland, Erzgebirge, Schneeberg
R: Heimat - Lied
M: 6/8
L: 1/16
K: C
G,G, | G,3A,G,2E2D2C2 | C2B,2z6
A,2 | G,4G,2A,2G,2F,2 | E,8z2
C,2 | A,4A,2C2B,2A,2 | A,2G,2z6
G,2 | G,3G,G,2G,2A,2B,2 | C6E2D2
C2 | D3EF2G,2A,2B,2 | C8z2

